!! 00000] TT[
!!!OTL: Yue xia qing ge
!!!ARE: Yunnan
!! Ethnic Group: Bai
!! MM, ZHONGGUO MINGE XUAN S.277
!!!SCT: C1305
!!!YEM: Copyright 1995, estate of Helmut Schaffrath.
**kern
*ICvox
*Ivox
*M2/4
*k[b-e-]
*B-:
{8bb-
8ccc
=1
8ddd
8ccc
8bb-
8bb-
=2
16ccc
16ddd
4.ccc}
=3
{8ddd
8ccc
8ddd
8ccc
=4
8gg
8ff
[4gg
=5
4gg]}
{8dd
8dd
=6
8.ddd
16ddd
8ddd
8ccc
=7
8.ddd
16bb-
8dd
8gg
=8
2dd}
=9
{8bb-
8ccc
8.ccc
16bb-
=10
8gg
8gg
8bb-
8gg
=11
2gg}
=12
{8dd
8ddd
8ccc
8ddd
=13
8ddd
8ccc
8ddd
8gg
=14
2dd}
=15
{8dd
8gg
8.ccc
16bb-
=16
8dd
8gg
[4gg
=17
4gg]}
{8dd
8dd
=18
8gg
8gg
8bb-
8ccc
=19
8bb-
8gg
4gg}
=20
{8dd
8bb-
8.gg
16ff
=21
8gg
8bb-
8gg#
8ff
=22
[2gg
=23
4gg]}
==
!!!AGN: Qingge
!! Alteration ?; Verzierungen
!!    Pinyin-Text der ersten Strophe vorhanden!
!!!ONB: ESAC (Essen Associative Code) Database: CHINA
!!!AMT: simple duple
!!!AIN: vox
!!!EED: Helmut Schaffrath
!!!EEV: 1.0
*-
!!!ONB: Tied note syntax fixed by Craig Sapp, 2004/05/03/
